!!!!SEGMENT: pl-wtm--r-1461--036_stefani-jozef--wszechstronne-cwiczenia-glosowe-mazur.krn
!!!cenid: 18xx:2212
!!!COM: Stefani, Józef
!!!COM-rismID: pe30024097
!!!CDT: 1800/04/16-1876/03/19
!!!CNT: Polish
!!!GTL: Wszechstronne ćwiczenia głosowe
!!!OTL: Mazur
!!!OMV: 036
!!!PDT:
!!!AGN: Secular
!!!SMS-siglum: PL-Wtm
!!!SMS-shelfmark: R 1461
!!!SMS-shelfwork: 001-036 G
!!!SMS-variant:
!!!SMS-altvar:
!!!NIFC-rismSourceID: 1001120710
!!!NIFC-rismChildID: 1001120710
!!!NIFC-islandoraID: pl-wtm:25869
!!!URL-pdf-islandora: https://repozytorium.nifc.pl/islandora/object/pl-wtm%3A25869/datastream/PDF/view
!!!URL-scan: https://polish.musicsources.pl/pl/lokalizacje/galeria/rekopisy/6276/35 @EN{Scan on Polish Music Sources Website} @PL{Skany w portalu Dziedzictwo Muzyki Polskiej w otwartym dostępie}
!!!ONB-nifc: UWAGA: skan 0037, s. 70 – 0038, s. 73
!!!OMD: Allegretto.
!!!AIN: 1 empty 1 tenor
!!!key:
**kern	**kern	**dynam	**kern	**dynam
*part2	*part2	*part2	*part1	*part1
*staff3	*staff2	*	*staff1	*
*Iempty	*Iforte	*	*Itenor	*
*	*I"Fortepian	*	*I"Sopran/Tenor	*
*clefF4	*clefG2	*	*clefG2	*
*k[f#]	*k[f#]	*	*k[f#]	*
*G:	*G:	*	*G:	*
*M3/8	*M3/8	*	*M3/8	*
*all\right	*all\right	*	*all\right	*
=1	=1	=1	=1	=1
*^	*	*	*	*
4.GG|/	8GG\L	8g 8B/	.	8g/	.
.	(>8D\	4d 4B^>/	.	4d^>/	.
.	8G\J)	.	.	.	.
*v	*v	*	*	*	*
=2	=2	=2	=2	=2
*	*^	*	*	*
*	*Xtuplet	*	*	*	*
!	!	!	!	!LO:TUP:b:problem=klamra łukowa, łuczek zamiast numeru	!
8C#X 8GG\	24e/LL	8A#X\	.	24e/LL	.
.	24f#/	.	.	24f#/	.
.	24e/JJ	.	.	24e/JJ	.
4D 4GG\	4d 4B/	8ryy	.	4d/	.
.	.	8ryy	.	.	.
*	*v	*v	*	*	*
=3	=3	=3	=3	=3
*^	*	*	*	*
4.GG|/	8GG\L	8g 8B/	.	8g/	.
.	(>8D\	4d 4B^>/	.	4d^>/	.
.	8G\J)	.	.	.	.
*v	*v	*	*	*	*
=4	=4	=4	=4	=4
*	*^	*	*	*
!	!	!	!	!LO:TUP:b:problem=klamra łukowa, łuczek zamiast numeru	!
8C#X 8GG\	24e/LL	8A#X\	.	24e/LL	.
.	24f#/	.	.	24f#/	.
.	24e/JJ	.	.	24e/JJ	.
4D 4GG\	4d 4B/	8ryy	.	4d/	.
.	.	8ryy	.	.	.
*	*v	*v	*	*	*
=5	=5	=5	=5	=5
*^	*	*	*	*
!LO:TX:t=P:problem=usunięte 8G 8r 8r	!	!	!LO:DY:rj	!	!
4.GG/	8GG\L	8r	p	16d/LL	.
.	.	.	.	32r	.
.	.	.	.	(32f#|/JJk	.
.	(>8D\	8gL 8d 8B/	.	4g/)	.
.	8G\J)	8gJ 8d 8B/	.	.	.
=6	=6	=6	=6	=6	=6
*	*	*rep	*	*	*
4.GG/	8GG\L	8r	.	16d/LL	.
.	.	.	.	32r	.
.	.	.	.	(32a#X/JJk	.
.	(>8D\	8gL 8d 8B/	.	4b/)	.
.	8G\J)	8gJ 8d 8B/	.	.	.
*	*	*Xrep	*	*	*
!!LO:LB:g=original
=7	=7	=7	=7	=7	=7
4.DD|/	8DD\L	8r	.	(16dd\LL	.
.	.	.	.	16cc#X\	.
.	(>8AA\	8f#L 8d 8c 8A/	.	16ee\	.
.	.	.	.	16dd\	.
.	8D\J)	8f#J 8d 8c 8A/	.	16ccn\	.
.	.	.	.	16a\JJ)	.
*v	*v	*	*	*	*
=8	=8	=8	=8	=8
!	!	!	!LO:N:vis=4	!
[8GG/	8r	.	4.g/	.
4G 4GG\]	4g 4d 4B/	.	.	.
=9	=9	=9	=9	=9
(4.D#X (4.DD#X^>/	8r	.	16.b\LL	.
.	.	.	32b\JJk	.
.	.	.	(8qdd/	.
.	8f#L 8B^/	.	(8cc\L)	.
.	8f#J 8B/	.	8b\J)	.
=10	=10	=10	=10	=10
!	!	!	!LO:TUP:b:problem=klamra łukowa, łuczek zamiast numeru	!
4.E 4.EE/))	8r	.	(24b/LL	.
.	.	.	24f#/	.
.	.	.	24g/JJ	.
!	!	!	!LO:TX:t=P:problem=mixed beam	!
.	8gL 8e 8B/	.	8e/L	.
.	8gJ 8e 8B/	.	8ee\J)	.
=11	=11	=11	=11	=11
(4.F# (4.FF#^/	8r	.	16.dd\LL	.
.	.	.	32dd\JJk	.
.	.	.	(8qff#/	.
.	8aL 8d 8A^/	.	(8ee\L)	.
.	8aJ 8d 8A/	.	8dd\J)	.
=12	=12	=12	=12	=12
*	*	*	*Xtuplet	*
4.G 4.GG/))	8r	.	24dd|\LL	.
.	.	.	(24a#X\	.
.	.	.	24b\JJ	.
.	8gL 8d 8B/	.	8g/L	.
.	8gJ 8d 8B/	.	8dd/J)	.
!!LO:LB:g=original
=13	=13	=13	=13	=13
8C 8CC/	8r	.	(8.ff#\L	.
8r	8aL 8e 8c/	.	.	.
.	.	.	16ee\L	.
8r	8aJ 8e 8c/	.	16cc\	.
.	.	.	16a\JJ)	.
=14	=14	=14	=14	=14
8D 8DD/	8r	.	(16.g/LL	.
.	.	.	32b/JJk	.
8r	8gL 8d 8B/	.	8ee\L	.
8r	8gJ 8d 8B/	.	8dd\J)	.
=15	=15	=15	=15	=15
8D 8DD/	8r	.	(16cc#X\LL	.
.	.	.	16dd\	.
8r	8f#L 8d 8c 8A/	.	16ee\	.
.	.	.	16dd\	.
8r	8f#J 8d 8c 8A/	.	16ccn\	.
.	.	.	16a\JJ)	.
=16	=16	=16	=16	=16
4G 4GG\	4g 4d 4B/	.	4g/	.
8r	8r	.	8r	.
=17!|:	=17!|:	=17!|:	=17!|:	=17!|:
4D 4DD/	16r	.	(8.a/L	.
!	!LO:TX:t=P:problem=16d f# poprawione na 16A	!	!	!
.	(16A/LL	.	.	.
.	16f# 16d/	.	.	.
.	16A/	.	16g#X/L	.
8r	16f# 16d/	.	16b/	.
.	16A/JJ)	.	16a/JJ)	.
=18	=18	=18	=18	=18
*	*rep	*	*	*
!	!	!	!LO:TX:t=P:problem=16g# poprawione na 16f#	!
4D 4DD/	16r	.	(16f#/LL	.
.	(16A/LL	.	16a/JJ)	.
.	16f# 16d/	.	4dd\	.
.	16A/	.	.	.
8r	16f# 16d/	.	.	.
.	16A/JJ)	.	.	.
*	*Xrep	*	*	*
!!LO:LB:g=original
=19	=19	=19	=19	=19
4AA 4AAA/	16r	.	(16d#X/LL	.
.	16A'/LL	.	16e/JJ)	.
.	(16g 16c#X/	.	4b/	.
.	16A/	.	.	.
8r	16g 16c#/	.	.	.
.	16A/JJ)	.	.	.
=20	=20	=20	=20	=20
4D 4DD/	16r	.	(16g#X/LL	.
.	16A'/LL	.	16a/JJ)	.
.	(16f# 16d/	.	4f#/	.
.	16A/	.	.	.
8r	16f# 16d/	.	.	.
.	16A/JJ)	.	.	.
=21	=21	=21	=21	=21
*rep	*rep	*	*	*
4D 4DD/	16r	.	(8.a/L	.
.	16A'/LL	.	.	.
.	(16f# 16d/	.	.	.
.	16A/	.	16g#X/L	.
8r	16f# 16d/	.	16b/	.
.	16A/JJ)	.	16a/JJ)	.
*Xrep	*Xrep	*	*	*
=22	=22	=22	=22	=22
*rep	*rep	*	*	*
!	!	!	!LO:TX:t=P:problem=16g# poprawione na 16f#	!
4D 4DD/	16r	.	(16f#/LL	.
.	16A'/LL	.	16a/JJ	.
.	(16f# 16d/	.	8ee\L	.
.	16A/	.	.	.
8r	16f# 16d/	.	8dd\J)	.
.	16A/JJ)	.	.	.
*Xrep	*Xrep	*	*	*
=23	=23	=23	=23	=23
4AA 4AAA/	16r	.	(16d#X/LL	.
.	16A|/	.	16e/JJ	.
.	(16gLL 16c#X/	.	8.b/L)	.
.	16A/	.	.	.
8r	16g 16c#/	.	.	.
.	16A/JJ)	.	(16c#X/Jk	.
=24	=24	=24	=24	=24
8D 8DD/	8f# 8d 8A/	.	16d/)	.
.	.	.	(16d/LL	.
8r	8r	.	16c#X/	.
.	.	.	16d/	.
8r	8r	.	16e/	.
.	.	.	16f#/JJ	.
!!LO:PB:g=original
=25	=25	=25	=25	=25
*^	*	*	*	*
!	!	!	!	!LO:TX:t=P:problem=brak zakończenia łuku	!
4.GG/	8GG\L	8g 8B/	.	8g/)	.
.	(>8D\	4d 4B/	.	4d^>/	.
.	8G\J)	.	.	.	.
*v	*v	*	*	*	*
=26	=26	=26	=26	=26
*	*^	*	*	*
*	*	*	*	*tuplet	*
!	!	!	!	!LO:TUP:b:problem=klamra łukowa	!
8C#X 8GG\	24e/LL	8A#X\	.	24e/LL	.
.	24f#/	.	.	24f#/	.
.	24e/JJ	.	.	24e/JJ	.
4D 4GG\	4d/	4B\	.	4d/	.
*	*v	*v	*	*	*
=27	=27	=27	=27	=27
*^	*	*	*	*
4.GG/	8GG\L	8g 8B/	.	8g/	.
.	(>8D\	4d 4B/	.	4d^>/	.
.	8G\J)	.	.	.	.
*v	*v	*	*	*	*
=28	=28	=28	=28	=28
*	*^	*	*	*
!	!	!	!	!LO:TUP:b:problem=klamra łukowa	!
8C#X 8GG\	24e/LL	8A#X\	.	24e/LL	.
.	24f#/	.	.	24f#/	.
.	24e/JJ	.	.	24e/JJ	.
4D 4GG\	4d/	4B\	.	4d/	.
*	*v	*v	*	*	*
=29	=29	=29	=29	=29
*^	*	*	*	*
4.GG/	8GG\L	8r	.	16d/LL	.
.	.	.	.	32r	.
.	.	.	.	(32f#/JJk	.
.	(>8D\	8gL 8d 8B/	.	4g/)	.
.	8G\J)	8gJ 8d 8B/	.	.	.
=30	=30	=30	=30	=30	=30
*rep	*rep	*rep	*	*	*
4.GG/	8GG\L	8r	.	16d/LL	.
.	.	.	.	32r	.
.	.	.	.	(32a#X/JJk	.
.	(>8D\	8gL 8d 8B/	.	4b/)	.
.	8G\J)	8gJ 8d 8B/	.	.	.
*Xrep	*Xrep	*Xrep	*	*	*
*v	*v	*	*	*	*
!!LO:LB:g=original
=31	=31	=31	=31	=31
4D 4DD/	8r	.	(16dd\LL	.
.	.	.	16cc#X\	.
.	8f#L 8d 8c 8A/	.	16ee\	.
.	.	.	16dd\	.
8r	8f#J 8d 8c 8A/	.	16ccn\	.
.	.	.	16a\JJ)	.
=32	=32	=32	=32	=32
4G 4GG\	4g 4d 4B/	.	4g/	.
8r	8r	.	8r	.
=33:|!|:	=33:|!|:	=33:|!|:	=33:|!|:	=33:|!|:
8E-X 8EE-X/	8r	.	8.g/L	.
8r	8gL 8e-X 8B-X/	.	.	.
.	.	.	(16f#X/L	.
8r	8gJ 8e- 8B-/	.	16g/	.
.	.	.	16a-X/JJ)	.
=34	=34	=34	=34	=34
8BB-X 8BBB-X/	8r	.	(16g/LL	.
!	!	!	!LO:SIC:v:s=16fn/JJ	!
.	.	.	16f#/JJ)	.
!	!	!	!LO:TX:t=P:problem=4B- poprawione na 4b-	!
8r	8a-XL 8d 8B-X/	.	4b-X/	.
8r	8a-J 8d 8B-/	.	.	.
=35	=35	=35	=35	=35
8BB-X 8BBB-X/	8r	.	(8.fn/L	.
8r	8a-XL 8d 8B-X/	.	.	.
.	.	.	16e/L	.
8r	8a-J 8d 8B-/	.	16f/	.
.	.	.	16g/JJ)	.
=36	=36	=36	=36	=36
8E-X 8EE-X/	8r	.	(16fn/LL	.
.	.	.	16e-X/JJ)	.
!	!	!	!LO:TX:t=P:problem=4B- poprawione na 4b-	!
8r	8gL 8e-X 8B-X/	.	4b-X/	.
8r	8gJ 8e- 8B-/	.	.	.
!!LO:LB:g=original
=37	=37	=37	=37	=37
8E-X 8EE-X/	8r	.	(8.g/L	.
!	!LO:SIC:v:n=3:s=8B-/	!	!	!
8r	8gL 8e-X 8B/	.	.	.
.	.	.	16f#/L	.
!	!LO:SIC:v:n=3:s=8B-/	!	!	!
8r	8gJ 8e- 8B/	.	16g/	.
.	.	.	16a-X/JJ)	.
=38	=38	=38	=38	=38
!LO:TX:t=P:rytm:problem=8 poprawione na 4.	!	!	!	!
4.AA-X 4.AAA-X/	8r	.	(16g/LL	.
.	.	.	16fn/JJ	.
!	!LO:SIC:v:n=1:s=8fnL	!	!	!
.	8f#L 8e-X 8c/	.	4cc\)	.
!	!LO:SIC:v:n=1:s=8fnJ	!	!	!
.	8f#J 8e- 8c/	.	.	.
=39	=39	=39	=39	=39
8BB-X 8BBB-X/	8r	.	(16an\LL	<
.	.	.	16b-X\	.
!	!LO:SIC:v:n=1:s=8fnL	!	!	!
8rFF	8f#L 8B-X 8A-X</	.	16bn\	.
.	.	.	16cc\	.
!	!LO:SIC:v:n=1:s=8fnJ	!	!	!
8rFF	8f#J 8B- 8A-</	.	16cc#X\	.
.	.	.	16dd\JJ	[[
=40	=40	=40	=40	=40
8E-X 8EE-X\	8r	.	8ee-X\)	.
4E- 4EE-\	4e-X 4B-X 4G<^>/	.	4e-X^>/	.
=41:|!	=41:|!	=41:|!	=41:|!	=41:|!
(4.E-X (4.EE-y\	8r	.	(8.cc#X/L	.
!	!LO:TX:t=P:problem=usunięta 8r	!	!	!
.	8gL 8c#X 8G</	.	.	.
.	.	.	16g/L	.
!	!	!	!LO:TX:t=P:problem=16a poprawione na 16f#	!
.	8gJ 8c# 8G</	.	16f#/	.
.	.	.	16g/JJ)	.
=42	=42	=42	=42	=42
8D 8DD\))	8r	.	(8.f#X/L	.
8rFF	8f#L 8d 8A</	.	.	.
.	.	.	16a/L	.
8rFF	8f#J 8d 8A</	.	16cc#X/	.
.	.	.	16dd/JJ)	.
!!LO:LB:g=original
=43	=43	=43	=43	=43
(4.E-X (4.EE-X\	8r	.	(8.cc#X/L	.
.	8gL 8c#X 8G</	.	.	.
.	.	.	16g/L	.
.	8gJ 8c# 8G</	.	16f#/	.
.	.	.	16g/JJ)	.
=44	=44	=44	=44	=44
*	*	*	*Xtuplet	*
!	!	!	!LO:TUP:a:problem=klamra łukowa	!
8D 8DD\))	8r	.	24f#/LL	.
.	.	.	24a/	.
.	.	.	24f#/JJ	.
8rFF	8f#L 8d 8A</	.	4d/	.
8rFF	8f#J 8d 8A</	.	.	.
=45	=45	=45	=45	=45
(4.E-X (4.EE-X\	8r	.	(8.cc#X/L	.
.	8gL 8c#X 8G</	.	.	.
.	.	.	16g/L	.
.	8gJ 8c# 8G</	.	16f#/	.
.	.	.	16g/JJ)	.
=46	=46	=46	=46	=46
8D 8DD\))	8r	.	(8.f#/L	.
8r	8f#L 8d 8A</	.	.	.
.	.	.	16a/L	.
8r	8f#J 8d 8A</	.	16cc#X/	.
.	.	.	16dd/JJ)	.
=47	=47	=47	=47	=47
4.E-X 4.EE-X\	8r	.	(8.cc#X/L	.
.	8gL 8c#X 8G</	.	.	.
.	.	.	16g/L	.
!	!LO:TX:b:t=V&colon; S&colon;	!	!	!
.	8gJ 8c# 8G</	.	16f#/	.
.	.	.	16g/JJ)	.
!!LO:PB:g=original
=48	=48	=48	=48	=48
8D 8DD\	8f# 8d 8A</	.	8f#/	.
8r	4dd 4f# 4d^/	.	4dd^\	.
!	!	!LO:HP:a:t=cresc	!	!
8D 8DD\	.	<	.	.
=49	=49	=49	=49	=49
8E 8EE\	8g 8e/	.	8g/	.
8r	4dd 4g 4e^/	.	4dd^\	.
8E 8EE\	.	.	.	.
=50	=50	=50	=50	=50
8F# 8FF#\	8a 8d/	.	8a/	.
8r	4cc 4a 4d^/	.	4dd^\	.
8F# 8FF#\	.	.	.	.
=51	=51	=51	=51	=51
8G 8GG\	8b 8g 8d/	.	8b\	.
8r	4dd 4b 4d^/	.	4dd^\	.
8G 8GG\	.	.	.	.
=52	=52	=52	=52	=52
!	!	!LO:DY:a:rj	!	!LO:HP:a
8.G#X 8.GG#X\	8.ee 8.b 8.e^/	f	([8ee\L	<
.	.	.	16ee\L]	.
16r	16r	.	16dd\	[
8r	8r	.	16cc#X\	.
.	.	.	16b\JJ	.
=53	=53	=53	=53	=53
!	!	!LO:DY:rj	!	!
4.Gn 4.GGn\	8r	p	8.a/L)	.
.	8eL 8c#X 8A</	.	.	.
.	.	.	(16a/L	.
.	8eJ 8c# 8A</	.	16b/	.
.	.	.	16cc#X/JJ)	.
!!LO:LB:g=original
=54	=54	=54	=54	=54
4.F# 4.FF#\	8r	.	(16ee\LL	.
.	.	.	16dd\	.
.	8aL 8d 8A</	.	16cc#X\	.
.	.	.	16dd\	.
.	8aJ 8d 8A</	.	16ee\	.
.	.	.	16dd\JJ)	.
=55	=55	=55	=55	=55
8G 8GG\	8r	.	(16cc#X/LL	.
.	.	.	16b/	.
8rFF	8gL 8e 8B</	.	16a#X/	.
.	.	.	16b/	.
8rFF	8gJ 8e 8B</	.	16g/	.
.	.	.	16e/JJ)	.
=56	=56	=56	=56	=56
8A 8AA\	8r	.	(8.b/L	.
8rFF	8f#L 8d 8A</	.	.	.
.	.	.	16a/L	.
8rFF	8f#J 8d 8A</	.	16f#/	.
.	.	.	16d/JJ)	.
=57	=57	=57	=57	=57
4.AA 4.AAA/	8r	.	(8.a/L	.
.	8gL 8c#X 8A</	.	.	.
.	.	.	16g/L	.
.	8gJ 8c# 8A</	.	16e/	.
.	.	.	16c#X/JJ)	.
=58	=58	=58	=58	=58
8D 8DD\	8f# 8d 8A</	.	16d/	.
.	.	.	(16d/LL	.
8r	8r	.	16c#X/	.
.	.	.	16d/	.
8r	8r	.	16e/	.
.	.	.	16f#/JJ)	.
!!LO:LB:g=original
=59	=59	=59	=59	=59
*^	*	*	*	*
4.GG|/	8GG\L	8g 8B/	.	8g/	.
.	(>8D\	4d 4B^>/	.	4d^>/	.
.	8G\J)	.	.	.	.
*v	*v	*	*	*	*
=60	=60	=60	=60	=60
*	*^	*	*	*
*	*tuplet	*	*	*tuplet	*
!	!LO:TUP:a:problem=klamra łukowa, łuczek zamiast numeru	!	!	!LO:TUP:b:problem=klamra łukowa, łuczek zamiast numeru	!
8C#X 8GG\	24e/LL	8A#X\	.	24e/LL	.
.	24f#/	.	.	24f#/	.
.	24e/JJ	.	.	24e/JJ	.
4D 4GG\	4d/	4B\	.	4d/	.
*	*v	*v	*	*	*
=61	=61	=61	=61	=61
*^	*	*	*	*
4.GG|/	8GG\L	8g 8B/	.	8g/	.
.	(>8D\	4d 4B^>/	.	4d^>/	.
.	8G\J)	.	.	.	.
*v	*v	*	*	*	*
=62	=62	=62	=62	=62
*	*^	*	*	*
!	!LO:TUP:a:problem=klamra łukowa, łuczek zamiast numeru	!	!	!LO:TUP:b:problem=klamra łukowa, łuczek zamiast numeru	!
8C#X 8GG\	24e/LL	8A#X\	.	24e/LL	.
.	24f#/	.	.	24f#/	.
.	24e/JJ	.	.	24e/JJ	.
4D 4GG\	4d/	4B\	.	4d/	.
*	*v	*v	*	*	*
=63	=63	=63	=63	=63
*^	*	*	*	*
4.GG/	8GG\L	8r	.	16d/LL	.
.	.	.	.	32r	.
.	.	.	.	(32f#|>/JJk	.
.	(>8D\	8gL 8d 8B/	.	4g/)	.
.	8G\J)	8gJ 8d 8B/	.	.	.
=64	=64	=64	=64	=64	=64
4.GG|/	8GG\L	8r	.	16d/LL	.
.	.	.	.	32r	.
.	.	.	.	(32a#X|>/JJk	.
.	(>8D\	8gL 8d 8B/	.	4b/)	.
.	8G\J)	8gJ 8d 8B/	.	.	.
=65	=65	=65	=65	=65	=65
4.DD|/	8DD\L	8r	.	(16dd\LL	.
.	.	.	.	16cc#X\	.
.	(>8AA\	8f#L 8d 8c 8A/	.	16ee\	.
.	.	.	.	16dd\	.
.	8D\J)	8f#J 8d 8c 8A/	.	16ccn\	.
.	.	.	.	16a\JJ)	.
*v	*v	*	*	*	*
!!LO:LB:g=original
=66	=66	=66	=66	=66
8G 8GG\	8g 8d 8B/	.	8g/	.
8r	8r	.	8r	.
8r	8r	.	[8g/	.
=67	=67	=67	=67	=67
!	!	!LO:DY:rj	!	!
4.GG 4.GGG/	8r	p	16g/LL]	.
.	.	.	32r	.
.	.	.	(32a#X/JJk	.
.	8dL 8B 8G</	.	(4b/)	.
.	8dJ 8B 8G</	.	.	.
=68	=68	=68	=68	=68
4.GG 4.GGG/	8r	.	16g/LL)	.
.	.	.	32r	.
.	.	.	(>32cc#X/JJk	.
.	8fnL 8B 8G</	.	(>4dd/)	.
.	8fJ 8B 8G</	.	.	.
=69	=69	=69	=69	=69
4.GG 4.GGG/	8r	.	16g/LL)	.
.	.	.	32r	.
.	.	.	(32b/JJk	.
.	8eL 8c 8G</	.	(4cc/)	.
.	8eJ 8c 8G</	.	.	.
=70	=70	=70	=70	=70
4.GG 4.GGG/	8r	.	16g/LL)	.
.	.	.	32r	.
.	.	.	(<32dd#X/JJk	.
.	8eL 8c 8G</	.	4ee\)	.
.	8eJ 8c 8G</	.	.	.
!!LO:PB:g=original
=71	=71	=71	=71	=71
4.GG 4.GGG/	8r	.	(8.ee-X\L	.
.	8f#L 8e-X 8c 8A/	.	.	.
.	.	.	16cc\L	.
.	8f#J 8e- 8c 8A/	.	16a\	.
.	.	.	16g\JJ)	.
=72	=72	=72	=72	=72
4.GG 4.GGG/	8r	.	16.g/LL	.
.	.	.	32b/JJk	.
.	8gL 8B/	.	4d/	.
.	8dJ 8B/	.	.	.
=73	=73	=73	=73	=73
8D 8DD/	8f# 8c 8A/	.	(16e-X/LL	.
.	.	.	16d/JJ	.
8r	8r	.	8.b;/L	.
8r;	8r;	.	.	.
.	.	.	16a/Jk)	.
=74	=74	=74	=74	=74
*^	*^	*	*	*
16G/LL	4GG\	(16g/LL	4B\	.	[>4.g/	.
16D/	.	16d/	.	.	.	.
16G/	.	16g/	.	.	.	.
16D/	.	16d/J)	.	.	.	.
!LO:TX:t=P:problem=16E- poprawione na 16C	!	!	!	!	!	!
16C/	8GG^\	8g^/J	16e-X\LL	.	.	.
16E-X/JJ	.	.	16c\JJ	.	.	.
=75	=75	=75	=75	=75	=75	=75
16G/LL	4GG\	(16g/LL	4B\	.	4.g/_>	.
16D/	.	16d/	.	.	.	.
16G/	.	16g/	.	.	.	.
16D/	.	16d/J)	.	.	.	.
16C/	8GG^\	8g^/J	16e-X\LL	.	.	.
16E-X/JJ	.	.	16c\JJ	.	.	.
!!LO:LB:g=original
=76	=76	=76	=76	=76	=76	=76
!	!	!	!	!	!LO:TX:t=P:problem=brak zakończenia ligatury	!
16G/LL	4GG\	(16g/LL	4B\	.	4.g/]	.
16D/	.	16d/	.	.	.	.
!	!	!	!	!LO:HP:a:t=dim	!	!
16G/	.	16g/	.	>	.	.
16D/	.	16d/J	.	.	.	.
16C/	8GG^\	8g^/J)	16e-X\LL	.	.	.
16E-X/JJ	.	.	16c\JJ	.	.	.
*v	*v	*	*	*	*	*
*	*v	*v	*	*	*
=77	=77	=77	=77	=77
!	!	!	!	!LO:HP:a
.	.	.	8qf#/	<
!	!LO:TX:a:i:t=rall.	!	!	!
4.G 4.GG\	4.g 4.d 4.B/	.	(4.gT/	[[
.	.	.	16qqf#/LL	.
.	.	.	16qqg/JJ)	.
=78	=78	=78	=78	=78
!	!	!LO:DY:rj	!	!
8G 8GG\	8gg 8b 8g\	f	8gg 8G/	.
8r	8r	.	8r	.
!	!	!	!LO:TX:t=P:problem=podwójna kreska poprawiona na pojedynczą kreskę taktową	!
8r	8r	.	8r	.
=79	=79	=79	=79	=79
!	!LO:TX:a:i:t=a tempo	!LO:DY:rj	!	!
8cL 8A 8D\	16ccc#XLL 16cc#X'\	ff	4.r	.
.	16ddd 16dd'\	.	.	.
8c 8A 8D\	16ddd#X 16dd#X'\	.	.	.
.	16eee 16ee'\	.	.	.
8cJ 8A 8D\	16eee#X 16ee#X'\	.	.	.
.	16fff#JJ 16ff#'\	.	.	.
=80	=80	=80	=80	=80
8B 8G\	8ggg 8gg\	.	4.r	.
4d 4B 4G\	4g^^/	.	.	.
==	==	==	==	==
*-	*-	*-	*-	*-
!!!system-decoration: <s1>{(s2,s3)}
!!!RDF**kern: > = above
!!!RDF**kern: < = below
!!!RDF**kern: | = vertical stroke
!!!ENC: Andrzej Kubiczek
!!!END: 2021-06-04
!!!ENC: Katarzyna Serwa
!!!END: 2021-05-19
!!!YEC: Copyright 2022 Narodowy Instytut Fryderyka Chopina (https://polishscores.org)
!!!YEM: License CC-BY-4.0 (https://creativecommons.org/licenses/by/4.0)
